X:127
T:Lord Beauchamps March. JJo.127
S:J.Jones MS,1801,N.Shrops.
A:N Shropshire
Z:Neil Brookes 2006
M:4/4
L:1/8
Q:1/2=80
K:C
e4d4|c2c>c cdef|g4f4|e2c>cc2z2|!
a2a>a ac’bc’|g2g>ggc’bc’|a2g2f2e2|dcBAG2z2|!
e4d4|c2c>c cdef|g4f4|e2c>cc2z2|!
a2a>a ac’bc’|g2g>gg2f2|(3efg (3agf e2Td2|c2c>cc4::!
fedc cdef|g2g>gg4|agfe fgab|c’2c’>c’c’4|!
a2a>a ac’bc’|g2g>ggc’bc’|a2g2f2e2|dcBAG2z2|!
e4d4|c2c>ccdef|g4f4|e2c>cc2z2|!
a2a>a ac’bc’|g2g>g”cr in MS”g2f2|(3efg (3agf e2Td2|c2c>cc4:|

